X: 33
T:Scottish Branle (1)
M:4/4
L:1/4
R:Branle
B:Thoinot Arbeau : Orchesographie, 1589
Z:Steve Mansfield March 2001
K:GDor
GA BG | AB c2 | cB AG | Bc d2 |
df ed | cB AG | GA BG | AB c2 |
cB AG | Bc d2 | cB AG | AF G2 ||

